X: 12634
T: Farley Bridge, The
R: reel
M: 4/4
K: Emajor
Beeg fefg|ag g/g/g eBBA|BeeB ggBf|feeg accB|
BeeB effg|ag g/g/g eAAB|fecf- fgfe|cBB2- B3B|
Beeg fefg|ag g/g/g eBBA|BeeB ggBf|feeg agfe|
BeeB effg|ag g/g/g eAAB|fecf- fgfe|cBB4fg|
|:agge eeca-|agge eeBA|BeeB ggBf|feef fgga|
agge eeca-|agge eecB|fecf- fgfe|1 cBB4fg:|2 cBB6||

